!!!!SEGMENT: pl-wnifc--493-n--006_oginski-michal-kleofas--16-polonaises-6-polonaise-in-f.krn
!!!cenid: 18xx:3865
!!!COM: Ogiński, Michał Kleofas
!!!COM-rismID: pe30002379
!!!CDT: 1765/09/25-1833/10/15
!!!CNT:
!!!GTL: 16 Polonaises
!!!OTL: 6. [Polonaise in F]
!!!OMV: 006
!!!PDT: 1864
!!!AGN:
!!!SMS-siglum: PL-Wnifc
!!!SMS-shelfmark: 493/n
!!!SMS-shelfwork: 001-006 G
!!!SMS-variant:
!!!SMS-altvar:
!!!NIFC-rismSourceID: 1001157350
!!!NIFC-rismChildID: 1001157357
!!!NIFC-islandoraID: nifc:212371
!!!URL-pdf-islandora: https://repozytorium.nifc.pl/islandora/object/nifc%3A212371/datastream/PDF/view
!!!URL-scan: https://polish.musicsources.pl/pl/lokalizacje/galeria/druki-muzyczne/16843 @EN{Scan on Polish Music Sources Website} @PL{Skany w portalu Dziedzictwo Muzyki Polskiej w otwartym dostępie}
!!!IIIF:
!!!ONB-nifc: UWAGA: w zbiorze znajduje się 14 Polonezów z Triami, pliki są numerowane jak w źródle.
!!!AIN: 1 piano
!!!key: F
!!!OMD: Moderato.
!!!OMD-mod: Moderato
!!!filter-modern: sic -s | shed -k -e "s/:TUP:/:tup:/L" | shed -e "s/TX(.*):t=P:/tx$1:t=P:/LG" | shed -k -e "s/LO:N:vis/LO:n:vis:/L"  | shed -e "s/:rj/:RJ/L" | shed -k -e "s/([^a-gA-Gn#X-])[<>]/$1/g" | shed -e "s/LO:DY:(a|b|rj)/LO:dy:$1/L" | shed -e "s/-//B" | autostem -r | modori -m
**kern	**kern	**dynam
*part1	*part1	*part1
*staff2	*staff1	*
*>[A,A,B,B,C,C1,C,C2,D,D,A]	*>[A,A,B,B,C,C1,C,C2,D,D,A]	*
*I"Piano.	*I"Piano.	*
*I'	*I'	*
*Ipiano	*Ipiano	*
*ICklav	*ICklav	*
*IGsolo	*IGsolo	*
*mI"Pianoforte	*mI"Pianoforte	*
*mI'pf	*mI'pf	*
*clefF4	*clefG2	*
*k[b-]	*k[b-]	*
*F:	*F:	*
*M3/4	*M3/4	*
=1	=1	=1
*>A	*>A	*
!	!	!LO:MO:null:mod=!LO&colon;DY&colon;t=%s dolce
!	!	!LO:DY:t=%s dolce.
(8AL 8F\	(2cc\	p
8c\	.	.
8A 8F\	.	.
8c\	.	.
8B- 8F\	4ee\)	.
8c\J)	.	.
=2	=2	=2
(8AL 8F\	(4ffT\	.
8c\	.	.
8A 8F\	4aa\)	.
8c\	.	.
8A 8F\	4r	.
8c\J)	.	.
=3	=3	=3
(8AL 8F\	(16cc\LL	.
.	16dd\	.
8c\	16cc\	.
.	16bn\JJ)	.
8A 8F\	(8.cc\L	.
8c\	.	.
.	16dd\Jk	.
8B- 8F\	8ee\L	.
8c\J)	16ff\L	.
.	16gg\JJ)	.
!!LO:LB:g=original
=4	=4	=4
(8AL 8F\	4ff\	.
8c\	.	.
*	*Xbrackettup	*
!	!LO:TUP:a	!
8A 8F\	24r	.
.	(24aa'\LL	.
.	24gg'\	.
8c\	24ff'\	.
.	24ee'\	.
.	24dd'\JJ	.
8A 8F\	4cc^\)	.
8c\J)	.	.
=5	=5	=5
8FL 8FF'/	8aaL 8ff 8a'\	ff
16.FL 16.FF'/	16.aaL 16.ff 16.a'\	.
32FJJk 32FF'/	32aaJJk 32ff 32a'\	.
8FL 8FF'/	8aaL 8ff 8a'\	.
8FJ 8FF'/	8aaJ 8ff 8a'\	.
8c#XL 8C#X'\	8aaL 8ee 8a'\	.
8c#J 8C#'\	8aaJ 8ee 8a'\	.
=6	=6	=6
8dL 8D'\	8aaL 8ff 8dd 8a'\	.
16.dL 16.D'\	16.aaL 16.ff 16.dd 16.a'\	.
32dJJk 32D'\	32aaJJk 32ff 32dd 32a'\	.
8dL 8D'\	8aaL 8ff 8dd 8a'\	.
8dJ 8D'\	8aaJ 8ff 8dd 8a'\	.
8B-L 8BB-'\	8ggL 8dd 8b-'\	.
8B-J 8BB-'\	8ggJ 8dd 8b-'\	.
!!LO:LB:g=original
=7	=7	=7
8cnL 8Cn'\	8ffL 8cc 8a'\	.
16.cL 16.C'\	16.ffL 16.cc 16.a'\	>
32cJJk 32C'\	32ffJJk 32cc 32a'\	.
8cL 8C'\	8ffL 8cc 8a'\	.
8cJ 8C'\	8ffJ 8cc 8a'\	.
8CL 8CC'/	8eeL 8b- 8g'\	.
8CJ 8CC'/	8eeJ 8b- 8g'\	]]
=8	=8	=8
4.F 4.FF/	16ff 16a\	p <
.	(16cc\LL	.
.	16bn\	.
.	16cc\JJ	.
.	16dd\LL	.
.	16cc\	.
8r	16ee\	.
.	16dd\JJ	.
4r	16ff\LL	.
.	16ee\	.
.	16gg\	.
.	16ff\JJ)	[
*clefG2	*	*
=9	=9	=9
!	!LO:TX:b:i:t=ritard.	!
4.a 4.f/	(16gg#X\LL	<
.	16aa\	.
.	16bb-\	.
.	16aa\JJ	[
.	16ggn\LL	>
.	16ff\	.
8r	16ee\	.
.	16dd\JJ	.
[4a 4g 4c#X/	16dd#X\LL	.
.	16ee\	.
.	16gg\	.
.	16ee\JJ)	]
!!LO:LB:g=original
=10	=10	=10
4.a] 4.f 4.d/	(16ff\LL	<
.	16ee\	.
.	16gg\	.
.	16ff\JJ	[
.	16aa\LL	>
.	16ff\	.
8r	16ee\	.
.	16dd\JJ	.
[4f 4B-/	16cc#X\LL	.
.	16dd\	.
.	16ff\	.
.	16dd\JJ)	]
=11	=11	=11
4.a 4.f] 4.cn/	(16bn\LL	<
.	16cc\	.
.	16cc#X\	.
.	16dd\JJ	.
.	16dd#X\LL	.
.	16ee\	.
8r	16ff\	.
.	16ff#X\JJ	.
4r	16gg\LL	.
.	16gg#X\	.
.	16aa\	.
.	16bb-X\JJ)	.
=12	=12	=12
4.b- 4.g 4.c/	(16bbn\LL	.
.	16ccc\	.
.	16ddd\	.
.	16ccc\JJ	.
.	16ccc\LL	.
.	16bb-X\	.
(>8b- 8g 8c/	16gg\	.
.	16ee\JJ)	[
!LO:TX:b:Bi:t=Fine.:mod=	!	!
4a 4f/)	4ff\	.
*clefF4	*	*
!!LO:TX:a:B:rj:t=:mod=Fine
!!LO:PB:g=original
=13:|!|:	=13:|!|:	=13:|!|:
*>B	*>B	*
*	*	*^
!	!	!	!LO:MO:null:mod=!LO&colon;DY&colon;t=%s dolce
!	!	!LO:MO:null:mod=.	!LO:DY:t=%s dol.
(8CL 8CC\	([4gg\	<	p
8G\	.	.	.
8E\	8gg\L]	.	.
!	!	!LO:MO:null:mod=<	!
8G\	8eee\	.	.
8C\	8ddd\	.	.
8G\J)	8ccc\J)	[	.
*	*	*v	*v
=14	=14	=14
.	(32qqbbn/LLL	.
.	32qqccc/	.
.	32qqddd/JJJ	.
(8D\L	(8.ccc\L)	.
8G\	.	.
.	16bbn\Jk)	.
8F\	4bb\	.
8G\	.	.
8D\	4r	.
8G\J)	.	.
=15	=15	=15
(8C\L	(4.ccc\	<
8G\	.	.
8E\	.	.
8G\	8cccsSSs\L	.
8C\	8ddd\	.
8G\J)	8eee\J)	[
=16	=16	=16
.	8qgg/	>
(8BBn\L	(16ggg\LL	.
.	16fff\	.
8G\	16ddd\	.
.	16bbn\JJ)	.
8D\	4gg\	.
8G\	.	]
8F\	4r	.
8G\J)	.	.
=17	=17	=17
.	(8qgg/	.
(8E\L	4.ggg\)	<
8c\	.	.
8G\	.	.
8c\	(8ggg'\L	.
8E\	8ggg'\	.
8c\J)	8ggg'\J)	[[
!!LO:LB:g=original
=18	=18	=18
(8F\L	4.ggg\	<
8d\	.	.
8A\	.	.
!	!LO:TR:acc=n	!
8d\	(8aat\L	[ >
8F\	8eee\	.
8d\J)	8ddd\J)	]
=19	=19	=19
(8G\L	(8ddd\	>
8e\	4ccc\)	]
8c\	.	.
8e\	8ccc\	.
8G\	(16ccc\LL	.
.	16bbn\	.
8f\J)	16aa\	.
.	16bb\JJ)	.
=20	=20	=20
4e 4c\	4ccc\	.
4r	8r	.
.	(16cc\LL	<
.	16dd\JJ	.
4r	16ee\LL	.
.	16ff\	.
.	16gg\	.
.	16aa\JJ)	[
*clefG2	*	*
=21	=21	=21
!	!	!LO:MO:null:mod=!LO&colon;DY&colon;t=%s scherzando
!	!	!LO:DY:t=%s scherzando.
8g 8c/	8bb-X'\L	p
8r	(16bn\L	.
.	16cc\JJ)	.
8g 8c/	8bb-X'\L	.
8r	(16bn\L	.
.	16cc\JJ)	.
8g 8c/	8bb-X'\L	.
8r	(16bn\L	.
.	16cc\JJ)	.
=22	=22	=22
8g 8c/	4bb-X^\	.
8r	.	.
4r	8r	.
.	(16ddd\LL	>
.	16ccc\JJ	.
4r	16bb-\LL	.
.	16aa\	.
.	16gg\	.
.	16ff\JJ)	]]
!!LO:LB:g=original
=23	=23	=23
8b- 8c/	8ee'\L	.
8r	(16bn\L	.
.	16cc\JJ)	.
8b- 8c/	8ee'\L	.
8r	(16b\L	.
.	16cc\JJ)	.
8b- 8c/	8ee'\L	.
8r	(16b\L	.
.	16cc\JJ)	.
=24	=24	=24
8b- 8c/	4ee\	.
8r	.	.
4r	8r	.
.	(8cc'\L	<
4r	8cc'\	.
.	8cc'\J)	.
*clefF4	*	*
=25	=25	=25
!	!LO:TX:b:i:t=dolce.:mod=dolce	!
(8AL 8F\	(2cc\	.
8c\	.	.
8A 8F\	.	.
8c\	.	.
8B- 8F\	4ee\)	[ >
8c\J)	.	.
=26	=26	=26
(8AL 8F\	(4ffT\	.
8c\	.	.
8A 8F\	4aa\)	.
8c\	.	.
8A 8F\	4r	.
8c\J)	.	]
=27	=27	=27
(8AL 8F\	(16cc\LL	.
.	16dd\	.
8c\	16cc\	.
.	16bn\JJ)	.
8A 8F\	(8.cc\L	.
8c\	.	.
.	16dd\Jk	.
8B- 8F\	8ee\L	.
8c\J)	16ff\L	.
.	16gg\JJ)	.
!!LO:LB:g=original
=28	=28	=28
(8AL 8F\	4ff\	.
8c\J)	.	.
*tremolo	*	*
!	!LO:TUP:a:problem=klamra łukowa	!
(8AL 8F\	24r	.
.	24aa'\LL	.
.	24gg'\	.
8c\	24ff'\	.
.	24ee'\	.
.	24dd'\JJ	.
8A 8F\	4cc\	.
8c\J)	.	.
*Xtremolo	*	*
=29	=29	=29
8FL 8FF'/	8aaL 8ff 8a'\	ff
16.FL 16.FF'/	16.aaL 16.ff 16.a'\	.
32FJJk 32FF'/	32aaJJk 32ff 32a'\	.
8FL 8FF'/	8aaL 8ff 8a'\	.
8FJ 8FF'/	8aaJ 8ff 8a'\	.
8c#XL 8C#X'\	8aaL 8ee 8a'\	.
8c#J 8C#'\	8aaJ 8ee 8a'\	.
=30	=30	=30
8dL 8D'\	8aaL 8ff 8dd 8a'\	.
16.dL 16.D'\	16.aaL 16.ff 16.dd 16.a'\	.
32dJJk 32D'\	32aaJJk 32ff 32dd 32a'\	.
8dL 8D'\	8aaL 8ff 8dd 8a'\	.
8dJ 8D'\	8aaJ 8ff 8dd 8a'\	.
8B-L 8BB-'\	8ggL 8dd 8b-'\	.
8B-J 8BB-'\	8ggJ 8dd 8b-'\	.
=31	=31	=31
8cnL 8Cn'\	8ffL 8cc 8a'\	>
16.cL 16.C'\	16.ffL 16.cc 16.a'\	.
32cJJk 32C'\	32ffJJk 32cc 32a'\	.
8cL 8C'\	8ffL 8cc 8a'\	.
8cJ 8C'\	8ffJ 8cc 8a'\	.
8CL 8CC'/	8eeL 8b- 8g'\	.
8CJ 8CC'/	8eeJ 8b- 8g'\	]
=32	=32	=32
4.F 4.FF/	16ff 16a'\	p <
.	(16cc\LL	.
.	16bn\	.
.	16cc\JJ	.
.	16dd\LL	.
.	16cc\	.
8r	16ee\	.
.	16dd\JJ	.
4r	16ff\LL	.
.	16ee\	.
.	16gg\	.
.	16ff\JJ)	[
*clefG2	*	*
!!LO:LB:g=original
=33	=33	=33
4.a 4.f/	(16gg#X\LL	>
.	16aa\	.
.	16bb-X\	.
.	16aa\JJ	.
.	16ggn\LL	.
.	16ff\	.
8r	16ee\	.
.	16dd\JJ	.
[4a 4c#X/	16dd#X\LL	.
.	16ee\	.
.	16gg\	.
.	16ee\JJ)	]
=34	=34	=34
4.a] 4.d/	(16ff\LL	<
.	16ee\	.
.	16gg\	.
.	16ff\JJ	.
.	16aa\LL	.
.	16ff\	[
8r	16ee\	>
.	16dd\JJ	.
[<4f 4B-/	16cc#X\LL	.
.	16dd\	.
.	16ff\	.
.	16dd\JJ)	]]
=35	=35	=35
4.a 4.f] 4.cn/	(16bn\LL	<
.	16cc\	.
.	16cc#X\	.
.	16dd\JJ	.
.	16dd#X\LL	.
.	16ee\	.
8r	16ff\	.
.	16ff#X\JJ	.
4r	16gg\LL	.
.	16gg#X\	.
.	16aa\	.
.	16bb-X\JJ)	.
=36	=36	=36
4.b- 4.g 4.c/	(16bbn\LL	.
.	16ccc\	.
.	16ddd\	.
.	16ccc\JJ	.
.	16ccc\LL	.
.	16bb-X\	.
(>8b- 8g 8c/	16gg\	.
.	16ee\JJ)	[
4a 4f/)	4ff\	.
*clefF4	*	*
!!LO:PB:g=original
!LO:MO:mod==37:|!|:	!LO:MO:mod==37:|!|:	!LO:MO:mod==37:|!|:
=37:|!	=37:|!	=37:|!
*>C	*>C	*
!	!	!LO:MO:null:mod=!LO&colon;DY&colon;t=%s scherzando
!	!LO:TX:a:t=Trio.	!LO:DY:t=%s scherzando.
(8AL 8F\	(16bn\LL	p
.	16cc\	.
8c\	16dd\	.
.	16cc\JJ)	.
8C\	8a'/	.
8c\	8r	.
8A 8F\	8r	.
8c\J)	8cc'\	.
=38	=38	=38
(8B-L 8G\	(16bn\LL	.
.	16cc\	.
8c\	16dd\	.
.	16cc\JJ)	.
8C\	8b-X'\	.
8c\	8r	.
8B- 8G\	8r	.
8c\J)	8g'/	.
=39	=39	=39
(8AL 8F\	(16a\LL	<
.	16cc\)	.
8c\	16ff'\	.
.	16aa'\JJ	[
8C\	(4.ccc\	>
8c\	.	.
8A 8F\	.	.
8c\J)	8aa\)	]
=40	=40	=40
(8B-L 8G\	8bb-'\L	.
8c\	(16bb-\L	.
.	16aa\JJ)	.
8C\	8gg'\L	.
8c\	(16gg\L	.
.	16ff\JJ)	.
8B- 8G\	8ee'\L	.
8c\J)	(16ee\L	.
.	16dd\JJ)	.
!!LO:LB:g=original
=41	=41	=41
(8AL 8F\	(16bn\LL	.
.	16cc\	.
8c\	16dd\	.
.	16cc\JJ)	.
8C\	8ff'\	.
8c\	8r	.
8A 8F\	4r	.
8c\J)	.	.
=42	=42	=42
(8GL 8E\	(16bn\LL	.
.	16cc\	.
8c\	16dd\	.
.	16cc\JJ)	.
8C\	8gg'\	.
8c\	8r	.
8G 8E\	4r	.
8c\J)	.	.
=43	=43	=43
(8AL 8F\	(16a\LL	<
.	16cc\)	.
8c\	16ff'\	.
.	16aa'\JJ	.
8C\	(8.ccc\L	.
8c\	.	.
.	16aa\Jk)	.
8B- 8G\	(16ccc\LL	.
.	16bb-\)	.
8c\J)	16gg'\	.
.	16ee'\JJ	[
=44	=44	=44
!LO:TX:t=1.	!	!
*>C1	*>C1	*
4A 4F\	(16ee\LL	>
.	16ff\	.
.	16aa\	.
.	16gg\JJ	.
4r	16ff\LL	.
.	16ee\	.
.	16dd\	.
.	16cc\JJ	.
4r	16bn\LL	.
.	16cc\	.
.	16b-X\	.
.	16g\JJ)	]]
=45:|!	=45:|!	=45:|!
!LO:TX:t=2.	!	!
*>C2	*>C2	*
(8B-L 8F\	(4gg\	>
8c\J	.	.
4A 4F\)	8ff\)	]
.	8aa'\L	<
4r	8aa'\	.
.	8aa'\J	[[
!!LO:LB:g=original
=46!|:	=46!|:	=46!|:
*>D	*>D	*
!	!LO:TX:b:i:t=espressivo.	!
8EL 8C#X\	(4bb-^<\	.
8A\	.	.
8AA\	8aa\)	.
8A\	(8bb-\L	.
8E 8C#\	8aa\	.
8A\J	8gg\J)	.
=47	=47	=47
8FL 8D\	(4gg\	.
8A\	.	.
8AA\	8ff\)	.
8A\	(8fff\L	.
8F 8D\	8eee\	.
8A\J	8ddd\J)	.
=48	=48	=48
8GL 8E\	(8ddd\	>
8A\	4ccc#X\	]
8AA\	.	.
8A\	8bb-\L	.
8G 8E\	8aa\	.
8A\J	8gg\J)	.
=49	=49	=49
.	(32qqff/LLL	.
.	32qqgg/	.
.	32qqaa/JJJ	.
8FL 8D\	(8.gg^\L)	.
8A\	.	.
.	16ff\Jk)	.
8AA\	4ff\	.
8A\	.	.
8F 8D\	4r	.
8A\J	.	.
=50	=50	=50
8GG\L	4.ff^\	.
8G\	.	.
8D 8BBn\	.	.
8G\	8ffsSSs\L	.
8F 8D\	(8.gg\	.
8G\J	.	.
.	16ff\Jk)	.
=51	=51	=51
.	8qff/	.
8GG\L	4ee^\	.
8G\	.	.
8E 8C\	8r	.
8G\	8eesSsS\L	.
8E 8C\	(8.ff\	.
8G\J	.	.
.	16ee\Jk)	.
!!LO:LB:g=original
=52	=52	=52
.	8qqee/	.
8GG\L	4dd^\	.
8G\	.	.
8F 8D\	8r	.
8G\	8ddsSSS\L	.
8F 8D\	(8.ee\	.
8G\J	.	.
.	16dd\Jk)	.
=53	=53	=53
8EL 8C\	2.ccT\	<
8F 8D\	.	.
8G 8E\	.	.
8A 8F\	.	.
8B-X 8G\	.	.
8GJ 8C\	.	[
=54	=54	=54
!	!LO:TX:a:i:t=scherzando.:mod=scherzando	!
(8AL 8F\	(16bn\LL	>
.	16cc\	.
8c\	16dd\	.
.	16cc\JJ)	]
8C\	8a'/	.
8c\	8r	.
8A 8F\	8r	.
8c\J)	8cc'\	.
=55	=55	=55
(8B-XL 8G\	(16bn\LL	.
.	16cc\	.
8c\	16dd\	.
.	16cc\JJ)	.
8C\	8b-X'\	.
8c\	8r	.
8B- 8G\	8r	.
8c\J)	8g'/	.
=56	=56	=56
(8AL 8F\	(16a\LL	<
.	16cc\)	.
8c\	16ff'\	.
.	16aa'\JJ	[
8C\	(4.ccc\	>
8c\	.	.
8A 8F\	.	.
8c\J)	8aa\)	]
!!LO:LB:g=original
=57	=57	=57
(8B-L 8G\	16bb-'\LL	.
.	(16ccc\	.
8c\	16ddd\)	.
.	(16ccc\JJ	.
8C\	16bb-\LL)	.
.	(16aa\	.
8c\	16gg\)	.
.	(16ff\JJ	.
8B- 8G\	16ee\LL)	.
.	(16dd\	.
8c\J)	16cc\)	.
.	16b-'\JJ	.
=58	=58	=58
(8AL 8F\	(16bn\LL	.
.	16cc\	.
8c\	16dd\	.
.	16cc\JJ)	.
8C\	8ff'\	.
8c\	8r	.
8A 8F\	4r	.
8c\J)	.	.
=59	=59	=59
(8GL 8E\	(16bn\LL	.
.	16cc\	.
8c\	16dd\	.
.	16cc\JJ)	.
8C\	8gg'\	.
8c\	8r	.
8G 8E\	4r	.
8c\J)	.	.
=60	=60	=60
(8AL 8F\	(16a\LL	<
.	16cc\)	.
8c\	16ff'\	.
.	16aa'\JJ	.
8C\	(8.ccc\L	.
8c\	.	.
.	16aa\Jk)	.
8B- 8G\	(16ccc\LL	.
.	16bb-\)	.
8c\J)	16gg'\	.
.	16ee'\JJ	[
=61	=61	=61
(4B- 4F\	(4gg\	>
4A 4F\)	8ff\)	]
.	(8cc'\L	p
4r	8cc'\	.
.	8cc'\J)	.
!LO:TX:b:i:t=Da Capo\nal Fine.:mod=	!	!
!!LO:TX:a:B:t=:mod=Da Capo al Fine
!LO:MO:mod==:|!	!LO:MO:mod==:|!	!LO:MO:mod==:|!
==	==	==
*-	*-	*-
!!!system-decoration: {(*)}
!!!RDF**kern: > = above
!!!RDF**kern: < = below
!!!ENC: Berenika Jozajtis
!!!END: 2022-07-25
!!!ENC: Andrzej Kubiczek
!!!END: 2022-08-22
!!!ENC-modern: Andrzej Borzym
!!!END-modern: 2022-08-30
!!!YEC: Copyright 2022 Narodowy Instytut Fryderyka Chopina (https://polishscores.org)
!!!YEM: License CC-BY-4.0 (https://creativecommons.org/licenses/by/4.0)
